svgs/regular/file-chart-column.svg

<svg xmlns="http://www.w3.org/2000/svg" viewBox="0 0 384 512"><!-- Font Awesome Pro 6.0.0-alpha2 by @fontawesome - https://fontawesome.com License - https://fontawesome.com/license (Commercial License) --><path d="M365.256 93.383L290.627 18.746C278.625 6.742 262.348 0 245.373 0H64C28.654 0 0 28.652 0 64L0.02 448C0.02 483.344 28.674 512 64.02 512H320C355.199 512 384 483.199 384 448V138.641C384 121.664 377.258 105.383 365.256 93.383ZM336.002 448C336.002 456.836 328.838 464 320.002 464H64.018C55.18 464 48.018 456.836 48.018 448L48 64.125C48 55.289 55.164 48.125 64 48.125H224.008V128C224.008 145.672 238.334 160 256.008 160H336.002V448ZM192 256C178.75 256 168 266.75 168 280V408C168 421.25 178.75 432 192 432S216 421.25 216 408V280C216 266.75 205.25 256 192 256ZM256 408C256 421.25 266.75 432 280 432S304 421.25 304 408V312C304 298.75 293.25 288 280 288S256 298.75 256 312V408ZM104 320C90.75 320 80 330.75 80 344V408C80 421.25 90.75 432 104 432S128 421.25 128 408V344C128 330.75 117.25 320 104 320Z"/></svg>

<svg xmlns="http://www.w3.org/2000/svg" viewBox="0 0 384 512"><!--! Font Awesome Pro 6.4.0 by @fontawesome - https://fontawesome.com License - https://fontawesome.com/license (Commercial License) Copyright 2023 Fonticons, Inc. --><path d="M48 448V64c0-8.8 7.2-16 16-16H224v80c0 17.7 14.3 32 32 32h80V448c0 8.8-7.2 16-16 16H64c-8.8 0-16-7.2-16-16zM64 0C28.7 0 0 28.7 0 64V448c0 35.3 28.7 64 64 64H320c35.3 0 64-28.7 64-64V154.5c0-17-6.7-33.3-18.7-45.3L274.7 18.7C262.7 6.7 246.5 0 229.5 0H64zM216 280c0-13.3-10.7-24-24-24s-24 10.7-24 24V408c0 13.3 10.7 24 24 24s24-10.7 24-24V280zm88 32c0-13.3-10.7-24-24-24s-24 10.7-24 24v96c0 13.3 10.7 24 24 24s24-10.7 24-24V312zM128 344c0-13.3-10.7-24-24-24s-24 10.7-24 24v64c0 13.3 10.7 24 24 24s24-10.7 24-24V344z"/></svg>
